X:20
T:Hornpipe. RDO.20
M:2/4
L:1/16
Q:1/4=80
S:Robert D. Owen MS,Indiana,1826.
R:.March
O:Indiana,USA
A:New Harmony
Z:vmp.Chris Partington
K:Eb
E6z2|G6z2|B2B2 Bcde|B2BB B2g2|!
a2aa a4|g2gg g4|defg fedc|B=ABc B_AGF|!
E6z2|G6z2|B2B2 Bcde|B2BB B2g2|!
a2aa a4|g2gg g4|defg fedf|e2ee e2||!
|:z2|a2aa a4|g2gg g4|defg a2g2|g4f2g2|!
a2aa a4|g2gg g4|defg fedf|e2ee e2:|!
|:G2|c2cc c2d2|fede c2G2|c2d2e2f2|g2G2G2G2|!
c2cc c2d2|fede c2a2|g2f2e2d2|c4c2:|!
|:(3Bcd|e2ee e2e2|e4z4|g2gg g2g2|g4z4|!
b2bb b2b2|b4bgeg|f2e2f2g2|e4e2:|

